X:1
T:Title
%%score { ( 1 4 ) | ( 2 3 ) }
L:1/8
M:4/4
K:F
V:1 treble nm="Grand Piano"
V:4 treble 
V:2 treble 
V:3 treble 
V:1
 z4 z2[Q:1/4=100] A>B | [CAc]2 [CAc]2 [Ac][Bd][Ac][GB] | [FA]2 [FA]2 [FA][GB][FA][EG] | %3
 [DF][EG][FA][GB] [Fc]2 [DGB]2 | [FA]4 G2 A>B | [CAc]2 [CAc]2 [Ac][Bd][Ac][GB] | %6
 [FA]2 [FA]2 A2 =BA | GA=Bc e2 d>e | d4[K:bass][K:treble] z4 | d2 e2 c2 [Gc]>[G=B] | A2 c2 G2 E2 | %11
 FEFG A2 [EG]F | [CE]4 [=B,D]2 [G,B,D]>[G,B,D] | [G,CE]2 [G,=B,F]2 [G,CG]2 [CEG]>[CEG] | %14
 [CA]2 [E_A=B]2 [E=Ac]2 [EA^c]2 | [DAd]2 [FA]>[FA] =B2 e>d | d4[K:bass][K:treble] z4 | %17
 F>E D>E F2 [FA]2 | c4 A4 | G>^F G>A B2 d2 | z4 G4 | z4 c4 | A>A A>_A =A2 G>G | %23
 F2 EF [=B,FG]2 [B,FA]2 | [DEG]2 [EGc]2 [FAd]2 [GBe]2 | [FAcf]2 f2 z4 | %26
 [FAcf]2 [FAcf]2 [FAcf]2 [FAcf]2 | z z/ ^F/ z z/ A/ [DGB]2 [D=FAd]2 | z2 G6 | z4 c4 | %30
 A2 [^CGA]2 z2 G2 | [A,CF]2 [G,CE][A,CF] [B,EG]2 [B,EA]2 |[M:3/4] [A,CF]6[K:bass] |] %33
V:2
 z4 z2 F>G | F,2 C,2 [F,C]2 [C,C]2 | [F,C]2 [C,C]2 [F,C]2 [C,C]2 | [D,A,]2 [D,A,]2 [A,,A,]2 B,,2 | %4
 z4[K:treble] E2 F>G | F,2 C,2 [F,C]2 [C,C]2 | [F,C]2 [C,C]2 [F,CF]2 [^F,C_E]2 | %7
 [G,CE]2 EE [G,A,F]2 [=B,F]>[A,G] | [G,=B,F]4[K:bass] [C,G,C]2[K:treble] [CEG]>[CEG] | %9
 [CFG]2 [CFG]2 [CEG]2[K:bass] [C,C]>[E,C] | [F,CF]2 [A,CF]2 [CE]2 [B,C]2 | %11
 C-[B,C][K:bass][A,C][G,B,C] [F,A,C]2 z D | G,4 G,2 G,,>G,, | C,2 D,2 E,2 C,>C, | F,2 E,2 A,2 G,2 | %15
 F,2 [D,D]>[D,D][K:treble] [G,DF]2 [G,A,F]>[G,A,F] | [G,=B,F]4[K:bass] [C,C]2 z2 | %17
 [F,A,C]2 [C,A,C]2 [F,A,C]2 [C,C]2 | [F,A,C]2 [C,A,]2 [F,A,C]2[K:treble] [A,C]2 | %19
 [B,D]2 [A,CD]2 [G,DG]2 [B,DG]2 | [CE]2 [DF]2 [CE]2 B,2 | %21
 [A,CF]2 [_A,DF]2 [=A,CF]2[K:bass] [G,C]2 | [F,CF]2 [F,=B,F]2 [F,CF]2 [E,G,C]>[E,G,C] | %23
 [D,A,C]2 .[D,C]2 G,,2 G,,2 | [C,C]4 z4 | [F,,F,]2 [C,,C,DFAc]2 [F,,F,]2 [C,,C,]2 | %26
 [F,,F,]2 [C,,C,]2 [F,,F,]2 [A,,A,]2 | [B,,B,]2 [A,,A,]2 [G,,G,]2 [B,,B,]2 | %28
 [C,C]2 [D,D]2 [C,C]2 [B,,B,]2 | z z/[K:treble] c/ z z/ =B/[K:bass] [A,,A,]2 [G,,G,]2 | %30
 [F,,F,]2 [E,,E,]2 [D,,D,]2 [B,,,B,,]2 | [C,,C,]2 [C,,C,]2 [C,,C,]2 [C,,C,]2 | %32
[M:3/4] [F,,F,]2 C,,2 F,,2 |] %33
V:3
 x8 | x8 | x8 | x8 | [C,C]6[K:treble] z2 | x8 | x8 | z2 [G,C]2 z2 G,2 | %8
 x4[K:bass] x2[K:treble] x2 | x6[K:bass] x2 | x8 | .A,2[K:bass] z2 z2 [D,A,]2 | x8 | x8 | x8 | %15
 x4[K:treble] x4 | x4[K:bass] x4 | x8 | x6[K:treble] x2 | x8 | x8 | x6[K:bass] x2 | x8 | x8 | %24
 B,,2 [B,,B,]2 [A,,A,]2 [G,,G,]2 | x8 | x8 | x8 | x8 | [A,,A,]2[K:treble] B,,2[K:bass] z4 | x8 | %31
 x8 |[M:3/4] x6 |] %33
V:4
 x8 | x8 | x8 | x8 | x8 | x8 | x8 | x8 | z2[K:bass] G,,2[K:treble] [Ec]2 c>c | x8 | x8 | x8 | x8 | %13
 x8 | x8 | x8 | z2[K:bass] G,,2[K:treble] [Ec]2 z2 | x8 | z2 C2 z2 F2 | x8 | G2 G2 z2 D2 | %21
 c>c c>=B z2 E2 | x8 | x8 | x8 | z z/ E/ z z/ E/ [FAcf]2 [FAcf]2 | x8 | [DGd]2 [DGc]2 z4 | %28
 [EG]2 E2 [EA]2 [CEB]2 | [CFc]2 [B,CEGc]2 [CF]2 [CEB]2 | %30
 [CF]->[CFA] z z/ _A/ [DF=A]2 [B,D]->[B,DG] | x8 |[M:3/4] z2[K:bass] C,2 F,2 |] %33

